X:1
T:Title
%%score 1 2 3 4
L:1/8
M:3/2
K:F
V:1 treble nm="Part_1"
V:2 treble-8 nm="Part_2"
V:3 treble-8 nm="Part_3"
V:4 bass nm="Part_4"
V:1
 z4 z4 D4 | A8 B4 | c4 d6 c2 | c8 B4 | c8 c4 | A8 B4 | c4 d6 c2 | c8 B4 | c12 | A8 A4 | A8 G4 | %11
 A12 | A6 G2 F4 | E8 E4 | F8 E4 | F4 A4 B4 | c8 c4 | A8 A4 | A8 G4 | A12 | A6 G2 F4 | E8 E4 | %22
 F8 E4 | F4 A4 B4 | c12 | F8 F4 | G8 G4 | A8 F4 | G12 | A6 G2 F4 | E4 D4 E4 | F12 |] %32
V:2
 z4 z4 f4 | f12 | f8 d4 | f4 g8 | e8 e4 | f8 f4 | f8 d4 | f4 g8 | e8 e4 | f8 f4 | f8 d4 | d12 | %12
 d4 A4 B4 | c8 c4 | c8 c4 | A4 d8 | c8 c4 | f8 f4 | f8 d4 | d12 | d4 A4 B4 | c8 c4 | c8 c4 | %23
 A4 d8 | c12 | d8 d4 | B8 B4 | A4 c4 d4 | e6 f2 g4 | f8 d4 | c4 d4 c4 | c12 |] %32
V:3
 z4 z4 F4 | F8 F4 | A8 B4 | c8 d4 | c8 c4 | F8 F4 | A8 B4 | c8 d4 | c12 | c8 d4 | c8 B4 | A12 | %12
w: In|dul- ci|ju- bi-|lo *|* nun|sin- get|und seid|froh *||un- sers|Her- zens|Won-|
 F8 F4 | G8 G4 | A8 G4 | F8 G4 | A8 A4 | c8 d4 | c8 B4 | A12 | F8 F4 | G8 G4 | A8 G4 | F8 G4 | %24
w: ne leit|in præ|se- pi-|o *|* und|leuch- tet|als die|Son-|ne ma-|tris in|gre- mi-|o *|
 A12 | D8 D4 | E8 E4 | F12 | c12 | A8 A4 | G8 G4 | F12 |] %32
w: |Al- pha|es et|O||Al- pha|es et|O.|
V:4
 z4 z4 F,4 | F,8 B,,4 | F,4 D,4 G,4 | A,4 G,8 | C,8 C,4 | D,8 B,,4 | F,4 D,4 G,4 | A,4 G,8 | C,12 | %9
 F,8 D,4 | F,8 G,4 | D,12 | D,8 D,4 | C,8 C,4 | F,8 C,4 | D,8 B,,4 | A,,8 A,4 | F,8 D,4 | F,8 G,4 | %19
 D,12 | D,8 D,4 | C,8 C,4 | F,8 C,4 | D,4 D,4 B,,4 | A,,12 | B,,8 B,,4 | G,,8 G,,4 | F,,4 F,4 D,4 | %28
 C,6 D,2 E,4 | F,4 D,4 F,4 | C,4 B,,4 C,4 | F,,12 |] %32

